src/assets/icons/home.svg

<svg xmlns="http://www.w3.org/2000/svg" xmlns:xlink="http://www.w3.org/1999/xlink"  version="1.1" width="24.5" height="24" viewBox="0 0 24.5 24"><g><g><path d="M12.25,0C5.48451,0,0,5.48451,0,12.25C0,14.6882,0.768513,16.0957,2.40971,16.443L2.64164,16.4856C3.56453,16.6417,3.92465,16.5879,6.66172,15.8791L7.38114,15.6922C9.40026,15.1665,10.7835,14.9247,12.25,14.9247C13.6499,14.9247,14.9738,15.145,16.8474,15.6222L18.605,16.0761C20.7479,16.6203,21.0603,16.6274,21.9744,16.4655C23.6953,16.1606,24.5,14.7449,24.5,12.25C24.5,5.48451,19.0155,0,12.25,0Z"  fill-opacity="1"/></g><g><path d="M12.25,7.5Q12.43423,7.5,12.617560000000001,7.48194Q12.8009,7.46388,12.98159,7.42794Q13.16227,7.392,13.33857,7.33853Q13.514859999999999,7.28505,13.68506,7.21455Q13.855260000000001,7.14405,14.01774,7.0572Q14.180209999999999,6.97036,14.33339,6.86801Q14.48657,6.76566,14.628969999999999,6.64879Q14.77138,6.53192,14.90165,6.40165Q15.03192,6.27138,15.14879,6.12897Q15.26566,5.98657,15.36801,5.83339Q15.47036,5.68021,15.5572,5.51774Q15.64405,5.35526,15.71455,5.18506Q15.78505,5.01486,15.83853,4.83857Q15.892,4.66227,15.92794,4.48159Q15.96388,4.3009,15.98194,4.11756Q16,3.93423,16,3.75Q16,3.56577,15.98194,3.38244Q15.96388,3.1991,15.92794,3.01841Q15.892,2.83773,15.83853,2.66143Q15.78505,2.48514,15.71455,2.31494Q15.64405,2.14473,15.5572,1.98226Q15.47036,1.81979,15.36801,1.66661Q15.26566,1.51343,15.14879,1.37103Q15.03192,1.22862,14.90165,1.09835Q14.77138,0.968082,14.628969999999999,0.851211Q14.48657,0.734339,14.33339,0.631989Q14.180209999999999,0.529639,14.01774,0.442795Q13.855260000000001,0.355952,13.68506,0.285452Q13.514859999999999,0.214952,13.33857,0.161474Q13.16227,0.107996,12.98159,0.0720552Q12.8009,0.0361145,12.617560000000001,0.0180573Q12.43423,0,12.25,0Q12.06577,0,11.882439999999999,0.0180573Q11.6991,0.0361145,11.51841,0.0720552Q11.33773,0.107996,11.16143,0.161474Q10.98514,0.214952,10.81494,0.285452Q10.64473,0.355952,10.48226,0.442795Q10.31979,0.529639,10.16661,0.631989Q10.01343,0.734339,9.87103,0.851211Q9.72862,0.968082,9.59835,1.09835Q9.468082,1.22862,9.351211,1.37102Q9.234339,1.51343,9.131989,1.66661Q9.029639,1.81979,8.942795,1.98226Q8.855952,2.14473,8.785452,2.31494Q8.714952,2.48514,8.661474,2.66143Q8.607996,2.83773,8.5720552,3.01841Q8.5361145,3.1991,8.5180573,3.38244Q8.5,3.56577,8.5,3.75Q8.5,3.93423,8.5180573,4.11756Q8.5361145,4.3009,8.5720552,4.48159Q8.607996,4.66227,8.661474,4.83857Q8.714952,5.01486,8.785452,5.18506Q8.855952,5.35526,8.942795,5.51774Q9.029639,5.68021,9.131989,5.83339Q9.234339,5.98657,9.351211,6.12897Q9.468082,6.27138,9.59835,6.40165Q9.72862,6.53192,9.87102,6.64879Q10.01343,6.76566,10.16661,6.86801Q10.31979,6.97036,10.48226,7.0572Q10.64473,7.14405,10.81494,7.21455Q10.98514,7.28505,11.16143,7.33853Q11.33773,7.392,11.51841,7.42794Q11.6991,7.46388,11.882439999999999,7.48194Q12.06577,7.5,12.25,7.5ZM12.25,5.5Q12.33597,5.5,12.42153,5.49157Q12.50709,5.48315,12.59141,5.46637Q12.67573,5.4496,12.758,5.42465Q12.84027,5.39969,12.919699999999999,5.36679Q12.99912,5.33389,13.07494,5.29336Q13.15076,5.25283,13.222249999999999,5.20507Q13.29373,5.15731,13.36019,5.10277Q13.42665,5.04823,13.48744,4.98744Q13.54823,4.92665,13.60277,4.86019Q13.657309999999999,4.79373,13.70507,4.72225Q13.75283,4.65076,13.79336,4.57494Q13.83389,4.49912,13.86679,4.4197Q13.89969,4.34027,13.92465,4.258Q13.9496,4.17573,13.966370000000001,4.09141Q13.98315,4.00709,13.99157,3.92153Q14,3.83597,14,3.75Q14,3.66403,13.99157,3.57847Q13.98315,3.49291,13.966370000000001,3.40859Q13.9496,3.32427,13.92465,3.242Q13.89969,3.15973,13.86679,3.0803Q13.83389,3.00088,13.79336,2.92506Q13.75283,2.84923,13.70507,2.77775Q13.657309999999999,2.70627,13.60277,2.63981Q13.54823,2.57335,13.48744,2.51256Q13.42665,2.45177,13.36019,2.39723Q13.29373,2.34269,13.222249999999999,2.29493Q13.15076,2.24716,13.07494,2.20664Q12.99912,2.16611,12.919699999999999,2.13321Q12.84027,2.10031,12.758,2.07535Q12.67573,2.0504,12.59141,2.03363Q12.50709,2.01685,12.42153,2.00843Q12.33597,2,12.25,2Q12.16403,2,12.07847,2.00843Q11.99291,2.01685,11.90859,2.03363Q11.82427,2.0504,11.742,2.07535Q11.65973,2.10031,11.5803,2.13321Q11.50088,2.16611,11.42506,2.20664Q11.34923,2.24716,11.277750000000001,2.29493Q11.20627,2.34269,11.13981,2.39723Q11.07335,2.45177,11.01256,2.51256Q10.95177,2.57335,10.89723,2.63981Q10.842690000000001,2.70627,10.79493,2.77775Q10.747160000000001,2.84923,10.70664,2.92506Q10.66611,3.00088,10.63321,3.0803Q10.60031,3.15973,10.57535,3.242Q10.5504,3.32427,10.53363,3.40859Q10.51685,3.49291,10.50843,3.57847Q10.5,3.66403,10.5,3.75Q10.5,3.83597,10.50843,3.92153Q10.51685,4.00709,10.53363,4.09141Q10.5504,4.17573,10.57535,4.258Q10.60031,4.34027,10.63321,4.4197Q10.66611,4.49912,10.70664,4.57494Q10.747160000000001,4.65076,10.79493,4.72225Q10.842690000000001,4.79373,10.89723,4.86019Q10.95177,4.92665,11.01256,4.98744Q11.07335,5.04823,11.13981,5.10277Q11.20627,5.15731,11.277750000000001,5.20507Q11.34923,5.25283,11.42506,5.29336Q11.50088,5.33389,11.5803,5.36679Q11.65973,5.39969,11.742,5.42465Q11.82427,5.4496,11.90859,5.46637Q11.99291,5.48315,12.07847,5.49157Q12.16403,5.5,12.25,5.5Z" fill-rule="evenodd" fill="#FFFFFF" fill-opacity="1"/></g><g><path d="M16,20.25Q16,20.43423,15.98194,20.61756Q15.96388,20.8009,15.92794,20.98159Q15.892,21.16227,15.83853,21.33857Q15.78505,21.51486,15.71455,21.68506Q15.64405,21.85526,15.5572,22.01774Q15.47036,22.18021,15.36801,22.33339Q15.26566,22.48657,15.14879,22.62897Q15.03192,22.77138,14.90165,22.90165Q14.77138,23.03192,14.628969999999999,23.148789999999998Q14.48657,23.26566,14.33339,23.368009999999998Q14.180209999999999,23.47036,14.01774,23.5572Q13.855260000000001,23.64405,13.68506,23.71455Q13.514859999999999,23.78505,13.33857,23.83853Q13.16227,23.892,12.98159,23.92794Q12.8009,23.96388,12.617560000000001,23.98194Q12.43423,24,12.25,24Q12.06577,24,11.882439999999999,23.98194Q11.6991,23.96388,11.51841,23.92794Q11.33773,23.892,11.16143,23.83853Q10.98514,23.78505,10.81494,23.71455Q10.64473,23.64405,10.48226,23.5572Q10.31979,23.47036,10.16661,23.368009999999998Q10.01343,23.26566,9.87103,23.148789999999998Q9.72862,23.03192,9.59835,22.90165Q9.468082,22.77138,9.351211,22.62897Q9.234339,22.48657,9.131989,22.33339Q9.029639,22.18021,8.942795,22.01774Q8.855952,21.85526,8.785452,21.68506Q8.714952,21.51486,8.661474,21.33857Q8.607996,21.16227,8.5720552,20.98159Q8.5361145,20.8009,8.5180573,20.61756Q8.5,20.43423,8.5,20.25Q8.5,20.06577,8.5180573,19.88244Q8.5361145,19.6991,8.5720552,19.51841Q8.607996,19.33773,8.661474,19.16143Q8.714952,18.98514,8.785452,18.81494Q8.855952,18.64473,8.942795,18.48226Q9.029639,18.31979,9.131989,18.16661Q9.234339,18.01343,9.351211,17.87103Q9.468082,17.72862,9.59835,17.59835Q9.72862,17.468082,9.87102,17.351211Q10.01343,17.234339,10.16661,17.131989Q10.31979,17.029639,10.48226,16.942795Q10.64473,16.855952,10.81494,16.785452Q10.98514,16.714952,11.16143,16.661474Q11.33773,16.607996,11.51841,16.5720552Q11.6991,16.5361145,11.882439999999999,16.5180573Q12.06577,16.5,12.25,16.5Q12.43423,16.5,12.617560000000001,16.5180573Q12.8009,16.5361145,12.98159,16.5720552Q13.16227,16.607996,13.33857,16.661474Q13.514859999999999,16.714952,13.68506,16.785452Q13.855260000000001,16.855952,14.01774,16.942795Q14.180209999999999,17.029639,14.33339,17.131989Q14.48657,17.234339,14.628969999999999,17.351211Q14.77138,17.468082,14.90165,17.59835Q15.03192,17.72862,15.14879,17.87102Q15.26566,18.01343,15.36801,18.16661Q15.47036,18.31979,15.5572,18.48226Q15.64405,18.64473,15.71455,18.81494Q15.78505,18.98514,15.83853,19.16143Q15.892,19.33773,15.92794,19.51841Q15.96388,19.6991,15.98194,19.88244Q16,20.06577,16,20.25Z"  fill-opacity="1"/></g></g></svg>

<svg xmlns="http://www.w3.org/2000/svg" width="24.5" height="24"><path d="M12.25 0C5.485 0 0 5.485 0 12.25c0 2.438.769 3.846 2.41 4.193l.232.043c.923.156 1.283.102 4.02-.607l.72-.187c2.018-.526 3.402-.767 4.868-.767 1.4 0 2.724.22 4.597.697l1.758.454c2.143.544 2.455.551 3.37.39 1.72-.305 2.525-1.721 2.525-4.216C24.5 5.485 19.015 0 12.25 0"/><path fill="#FFF" fill-rule="evenodd" d="M12.25 7.5q.184 0 .368-.018.183-.018.364-.054.18-.036.357-.09.176-.053.346-.123t.333-.158.315-.189.296-.22.273-.246.247-.273.219-.296.19-.315.157-.333.124-.346q.053-.177.089-.357.036-.181.054-.364Q16 3.934 16 3.75t-.018-.368q-.018-.183-.054-.364-.036-.18-.09-.357-.053-.176-.123-.346t-.158-.333-.189-.315-.22-.296-.246-.273-.273-.247-.296-.219-.315-.19-.333-.157-.346-.124q-.177-.053-.357-.089-.181-.036-.364-.054Q12.434 0 12.25 0t-.368.018-.364.054-.357.09-.346.123-.333.158q-.162.087-.315.189-.154.102-.296.22-.142.116-.273.246-.13.13-.247.273-.117.142-.219.296-.102.153-.19.315-.086.163-.157.333-.07.17-.124.346-.053.177-.089.357-.036.181-.054.364-.018.184-.018.368t.018.368q.018.183.054.364.036.18.09.357.053.176.123.346t.158.333.189.315.22.296.246.273.273.247.296.219.315.19q.163.086.333.157.17.07.346.124.177.053.357.089.181.036.364.054.184.018.368.018m0-2q.086 0 .172-.008t.17-.026.166-.041.162-.058.155-.074.147-.088.138-.102.127-.116.116-.127.102-.138.088-.147.074-.155.058-.162.041-.167.026-.17T14 3.75t-.008-.172-.026-.17-.041-.166-.058-.162-.074-.155-.088-.147-.102-.138-.116-.127-.127-.116-.138-.102-.147-.088-.155-.074-.162-.058-.167-.041-.17-.026T12.25 2t-.172.008-.17.026-.166.041-.162.058-.155.074-.147.088-.138.102-.127.116-.116.127-.102.138-.088.147-.074.155-.058.162-.041.167-.026.17-.008.171.008.172.026.17.041.166.058.162.074.155.088.147.102.138.116.127.127.116.138.102.147.088.155.074.162.058.167.041.17.026.171.008"/><path d="M16 20.25q0 .184-.018.368-.018.183-.054.364-.036.18-.09.357-.053.176-.123.346t-.158.333-.189.315-.22.296-.246.273-.273.247-.296.219-.315.19-.333.157-.346.124q-.177.053-.357.089-.181.036-.364.054-.184.018-.368.018t-.368-.018-.364-.054-.357-.09-.346-.123-.333-.158q-.162-.087-.315-.189-.154-.102-.296-.22-.142-.116-.273-.246-.13-.13-.247-.273-.117-.142-.219-.296-.102-.153-.19-.315-.086-.163-.157-.333-.07-.17-.124-.346-.053-.177-.089-.357-.036-.181-.054-.364-.018-.184-.018-.368t.018-.368q.018-.183.054-.364.036-.18.09-.357.053-.176.123-.346t.158-.333.189-.315.22-.296.246-.273.273-.247.296-.219.315-.19q.163-.086.333-.157.17-.07.346-.124.177-.053.357-.089.181-.036.364-.054.184-.018.368-.018t.368.018.364.054.357.09.346.123.333.158q.162.087.315.189.154.102.296.22.142.116.273.246.13.13.247.273.117.142.219.296.102.153.19.315.086.163.157.333.07.17.124.346.053.177.089.357.036.181.054.364.018.184.018.368"/></svg>
